X: 34451
T: Ride A Mile
R: slip jig
M: 9/8
K: Gmajor
dBG G2A G2B|dBG GBd "*"gfe|dBG G2A G2E|F2G A2 B c2^c:|
def ~g3 fed|g2B B2A B2c|def gag fed|e2A A2B c2^c|
def gag fed|g2B B2A B2A|def gfe agf|e2A A2f gfe||
BAB g2B g2B|BAB g2B b2B|BAB g2B g2B|ABA A2B c2A|
BAB g2B g2B|BAB g2B b2B|BAB b2g a2f|gfg e2f gfe||
P: * variation
~g3|

